images/icons/v2/emoji-flag-outline-20.svg

<svg height="20" viewBox="0 0 20 20" width="20" xmlns="http://www.w3.org/2000/svg"><path d="m17.5 3.3a11.4 11.4 0 0 0 -7.3 0 10.014 10.014 0 0 1 -6.4 0l-.3-.1v-1.2h-1.5v16h1.5v-4.2a11.336 11.336 0 0 0 3.2.6 12.088 12.088 0 0 0 3.8-.6 10.014 10.014 0 0 1 6.4 0l1 .4v-10.7zm-1 8.7a11.244 11.244 0 0 0 -6.3.3 10.014 10.014 0 0 1 -6.4 0l-.2-.1v-7.4a12.265 12.265 0 0 0 7.1 0 9.911 9.911 0 0 1 5.9-.2v7.4z"/></svg>

<svg xmlns="http://www.w3.org/2000/svg" width="20" height="20" viewBox="0 0 20 20"><title>emoji-flag-outline-20</title><path d="M17.5,3.3a11.4,11.4,0,0,0-7.3,0,10.014,10.014,0,0,1-6.4,0l-.3-.1V2H2V18H3.5V13.8a11.336,11.336,0,0,0,3.2.6,12.088,12.088,0,0,0,3.8-.6,10.014,10.014,0,0,1,6.4,0l1,.4V3.5Zm-1,8.7a11.244,11.244,0,0,0-6.3.3,10.014,10.014,0,0,1-6.4,0l-.2-.1V4.8a12.265,12.265,0,0,0,7.1,0,9.911,9.911,0,0,1,5.9-.2V12Z"/></svg>
